X:1
T:Noche de paz
T:Noche de paz
T:Villancico
T:Popular
T:Macarena Iniesta
C:Popular
Z:Macarena Iniesta
%%score 1 2 3
L:1/8
M:3/4
K:C
V:1 treble nm="Violín" snm="Vln."
V:2 treble nm="Violín" snm="Vln."
V:3 bass nm="Violonchelo" snm="Vc."
V:1
 G3 A G2 | E6 | G3 A G2 | E6 | d4 d2 | B6 | c4 c2 | G6 | A4 A2 | c3 B A2 | G3 A G2 | E6 | A4 A2 | %13
 c3 B A2 | G3 A G2 | E6 | d4 d2 | f3 d B2 | c6 | e6 | c3 G E2 | G3 F D2 | (C6 | C6) |] %24
V:2
 E3 F E2 | C6 | E3 F E2 | C6 | G4 G2 | D6 | E4 E2 | E6 | F4 F2 | A3 G F2 | E3 F E2 | C6 | F4 F2 | %13
 A3 G F2 | E3 F E2 | C6 | F4 F2 | D3 E F2 | E4 G2 | A6 | G3 E C2 | E3 D B,2 | (G,6 | G,6) |] %24
V:3
 C,3 C, C,2 | C,6 | C,3 C, C,2 | C,6 | F,4 D,2 | G,6 | E,4 C,2 | G,6 | F,4 C,2 | F,3 E, D,2 | %10
 C,3 C, C,2 | (C,2 D,2 E,2) | F,4 C,2 | F,3 G, F,2 | C,3 C, C,2 | C,6 | G,4 G,2 | ^G,3 G, G,2 | %18
 A,4 G,2 | ^F,6 | G,3 E, C,2 | G,,3 G,, G,,2 | (G,,6 | G,,6) |] %24

